X:1
T:The Cleansing Blood
T:The Cleansing Blood
T:Oscar A. Miller
T:Mrs. Elizabeth Miller, 1903
T:Public Domain Courtesy of the Cyber Hymnal™
T:Public Domain Courtesy of the Cyber Hymnal™
C:Oscar A. Miller
Z:Public Domain
Z:Courtesy of the Cyber Hymnal™
%%score ( 1 2 ) ( 3 4 )
L:1/8
Q:1/4=90
M:4/4
K:D
V:1 treble 
V:2 treble 
V:3 bass 
V:4 bass 
V:1
 D[DE] | [DF][DF][DF][DF] [DF][DF][CE][DF] | [EG][EG][EG][DG] [CG]2 [DF][EG] | %3
w: 1.~When they|cru- ci- fied my Sav- ior On the|cross of Cal- va- ry, There a|
w: 2.~Now I|plead the blood of Je- sus, And He’s|with me all the way; I am|
w: 3.~He will|robe me with white rai- ment When my|pil- grim- age is past; And pre-|
 [FA][FA][FA][FA] [GB][FA][Fd][DF] | [DF][CE][CE][CE] [CE]2 D[DE] | %5
w: bless- èd fount was o- pened For my|cleans- ing, full and free; And my|
w: hap- py and re- joic- ing In His|fa- vor ev- ery day; In the|
w: sent me pure and spot- less With the|sanc- ti- fied at last; I will|
 [DF][DF][DF][DF] [DF][DF][CE][DF] | [EG][EG][EG][DG] [CG]2 [DF][EG] | [FA][Ad]!fermata![Gd][GB] | %8
w: sins were all for- giv- en Just by|faith in His shed blood; They are|washed a- way for-|
w: bur- den and the tri- al, There is|none so kind as He; My Re-|deem- er is my|
w: sing His praise and glo- ry Un- to|all e- ter- ni- ty, Tell- ing|ev- er- more the|
 [FA]<[DF] D[DE] | [DF]2 [CE]2 D3 ||"^Refrain" [FA] | [Fd]2 [Gd]2 d3 [FA] | %12
w: ev- er By the|crim- son flood.|It|cleans- eth me! It|
w: kins- man, And His|blood saves me.|||
w: sto- ry How His|blood saved me.|||
 [GB]2 [GB]2 [FA]3 [FA] x2 | [Fd][Gd][Ad][FA] [GB][Gd][Gd][Gd] | [Gc]2 [Gc]2 [Gc]3 [Gc] | %15
w: cleans- eth me! The|pre- cious blood of Je- sus Full- y|cleans- eth me. It|
w: |||
w: |||
 [Fd]2 [Gd]2 d3 [FA] | [GB]2 [GB]2 [FA]3 [FA] x2 | [Fd][Gd][Ad][FA] [GB][Gd][^Ed]"^riten."[Ed] | %18
w: cleans- eth me! It|cleans- eth me! The|pre- cious blood of Je- sus Full- y|
w: |||
w: |||
 [Fd]2 c2 !fermata![Fd]2 |] %19
w: cleans- eth me.|
w: |
w: |
V:2
 D x | x8 | x8 | x8 | x6 D x | x8 | x8 | x4 | x2 D x | x4 D3 || x | x4 (F^EF) x | x10 | x8 | x8 | %15
 x4 (F^EF) x | x10 | x8 | x2 (EG) x2 |] %19
V:3
 [D,F,][D,G,] | [D,A,][D,A,][D,B,][D,B,] [D,A,][D,A,][G,A,][F,A,] | %2
w: ~ ~|~ ~ ~ ~ ~ ~ ~ ~|
 [E,A,][D,A,][C,A,][B,,A,] [A,,A,]2 [D,A,][D,A,] | [D,D][D,D][D,D][D,D] [D,D][D,D][D,A,][D,A,] | %4
w: ~ ~ ~ ~ ~ ~ ~|~ ~ ~ ~ ~ ~ ~ ~|
 [A,,A,][A,,A,][A,,A,][A,,A,] A,2 [F,A,][E,A,] | %5
w: ~ ~ ~ ~ ~ ~ ~|
 [D,A,][D,A,][D,B,][D,B,] [D,A,][D,A,][G,A,][F,A,] | %6
w: ~ ~ ~ ~ ~ ~ ~ ~|
 [E,A,][D,A,][C,A,][B,,A,] [A,,A,]2 [D,A,][D,A,] | [D,D][F,D]!fermata![G,B,][G,D] | %8
w: ~ ~ ~ ~ ~ ~ ~|~ ~ ~ ~|
 [D,D]<[D,A,] [B,,^G,][B,,G,] | [A,,A,]2 (A,G,) [D,F,]3 || [D,D] | %11
w: ~ ~ ~ ~|~ ~ * ~|~|
 [D,A,]2 [D,A,]2 [D,A,][D,^G,][D,A,][D,D] | D2 [A,,A,] D2 [C,C] [D,D]3 [D,D] | %13
w: ~ ~ ~ oh, yes, ~|~ ~ ~ ~ ~ ~|
 [D,A,][E,A,][F,D][D,D] [G,D][G,B,][G,B,][G,B,] | A,A,A,B, A,[G,A,][F,A,][E,A,] | %15
w: * ~ ~ ~ ~ Yes, the pre-|cious blood of Je- sus ful- ly cleans-|
 [D,A,]2 [D,B,]2 [D,A,]^G,[D,A,][D,D] | D2 [A,,A,] D2 [C,C] [D,D]3 [D,D] | %17
w: eth, cleans- eth me! * *||
 [D,A,][E,A,][F,D][D,D] [G,D][G,B,][^G,B,][G,B,] | A,2 [A,,A,]2 !fermata![D,A,]2 |] %19
w: ||
V:4
 x2 | x8 | x8 | x8 | x4 (A,G,) x2 | x8 | x8 | x4 | x4 | x2 A,,2 x3 || x | x8 | [G,,G,] [B,,B,] x8 | %13
 x8 | A,A,A,B, A, x3 | x8 | [G,,G,] [B,,B,] x8 | x8 | A,2 x4 |] %19

